assets/icon/coin.svg

<svg height="200" viewBox="0 0 1024 1024" width="200" xmlns="http://www.w3.org/2000/svg"><path d="m435.2 390.4c96 6.4 192-19.2 275.2-64v76.8h57.6v-172.8c0-102.4-172.8-160-332.8-160s-339.2 57.6-339.2 160v473.6c0 102.4 172.8 160 339.2 160v-57.6c-172.8 0-275.2-57.6-275.2-102.4v-140.8c83.2 44.8 179.2 70.4 275.2 64v-57.6c-172.8 0-275.2-57.6-275.2-102.4v-140.8c83.2 44.8 172.8 70.4 275.2 64zm0-262.4c172.8 0 275.2 57.6 275.2 102.4s-108.8 102.4-275.2 102.4-281.6-64-281.6-102.4 108.8-102.4 281.6-102.4zm268.8 294.4c-147.2 0-224 57.6-224 115.2v307.2c0 57.6 76.8 115.2 224 115.2s224-57.6 224-115.2v-307.2c0-57.6-76.8-115.2-224-115.2zm0 57.6c108.8 0 166.4 38.4 166.4 51.2s-57.6 57.6-166.4 57.6-172.8-38.4-172.8-51.2 57.6-57.6 172.8-57.6zm0 416c-108.8 0-166.4-38.4-166.4-51.2v-76.8c108.8 44.8 230.4 44.8 332.8 0v70.4c0 19.2-57.6 57.6-166.4 57.6zm0-153.6c-108.8 0-166.4-38.4-166.4-51.2v-76.8c108.8 44.8 230.4 44.8 332.8 0v70.4c0 19.2-57.6 57.6-166.4 57.6z" fill="#b3b3b3"/></svg>

<?xml version="1.0" standalone="no"?><!DOCTYPE svg PUBLIC "-//W3C//DTD SVG 1.1//EN" "http://www.w3.org/Graphics/SVG/1.1/DTD/svg11.dtd"><svg t="1623676864946" class="icon" viewBox="0 0 1024 1024" version="1.1" xmlns="http://www.w3.org/2000/svg" p-id="4029" xmlns:xlink="http://www.w3.org/1999/xlink" width="200" height="200"><defs><style type="text/css"></style></defs><path d="M435.2 390.4c96 6.4 192-19.2 275.2-64v76.8h57.6V230.4C768 128 595.2 70.4 435.2 70.4S96 128 96 230.4V704c0 102.4 172.8 160 339.2 160v-57.6c-172.8 0-275.2-57.6-275.2-102.4V563.2c83.2 44.8 179.2 70.4 275.2 64v-57.6c-172.8 0-275.2-57.6-275.2-102.4V326.4c83.2 44.8 172.8 70.4 275.2 64z m0-262.4c172.8 0 275.2 57.6 275.2 102.4S601.6 332.8 435.2 332.8s-281.6-64-281.6-102.4S262.4 128 435.2 128zM704 422.4c-147.2 0-224 57.6-224 115.2v307.2c0 57.6 76.8 115.2 224 115.2s224-57.6 224-115.2V537.6c0-57.6-76.8-115.2-224-115.2z m0 57.6c108.8 0 166.4 38.4 166.4 51.2s-57.6 57.6-166.4 57.6-172.8-38.4-172.8-51.2 57.6-57.6 172.8-57.6z m0 416c-108.8 0-166.4-38.4-166.4-51.2V768c108.8 44.8 230.4 44.8 332.8 0v70.4c0 19.2-57.6 57.6-166.4 57.6z m0-153.6c-108.8 0-166.4-38.4-166.4-51.2V614.4c108.8 44.8 230.4 44.8 332.8 0v70.4c0 19.2-57.6 57.6-166.4 57.6z" fill="#B3B3B3" p-id="4030"></path></svg>
